X: 132014
T: The WEE WEE MAN
Q: "Scotch Jig."
R: Jig.
%R: jig
B: James Kerr "Merry Melodies" v.1 p.32 s.0 #14
Z: 2016 John Chambers <jc:trillian.mit.edu>
M: 6/8
L: 1/8
K: G
ud |\
g>fe edB | g>fg GBd | g>fe edB | ecA uA2uf |\
g>fe edB | g>fg a2b | g>fe ege | dBA A2 ||
B/c/ |\
vd2vB ud2uB | g>fg G2B/c/ | d2B d2B | ecA ABc |\
d2B d2B | gfg a2b | g>fe efg | dBA A2 |]

%%sep 1 1 500
%%sep 1 1 500

